X:1
T:Title
%%score { ( 1 3 ) | ( 2 4 ) }
L:1/8
M:6/8
K:A
V:1 treble nm="Grand Piano"
V:3 treble 
V:2 bass 
V:4 bass 
V:1
 z3 z2[Q:1/4=90] E | A>AA [CEA][B,EG][A,EA] | B3 E2 E | [GB]>[GB][GB] [GB][Ac][Bd] | %4
[M:5/8] c-c- c3 |[M:1/8] A |[M:3/4] c>c c[Ec] [EB][Ec] | [=Ge]3 [Fd]2 [Ec] | B>c B[FA] [EG][^DF] | %9
 E6 |[M:1/8] [CE] |[M:3/4] [Ec]>[Ec] [Ec][FB] [FA][DF] | [CE]3 [EA]/[EA]/- [EA]A | c>c cB F[^Dc] | %14
[M:5/8] B-B- B3 |[M:1/8] E |[M:3/4] c>c c[Ec] [EB][EA] |[M:7/8] [FB][FA][DF] [FA]3 [DF] | %18
[M:29/32] z/4 z/4 z/4 z/4 z/4 z/4 z/4 z/4 z/ [Fd]/-<[Fd]/[Ec]/ z/4 z/4 z/4 z/4 z/4 z/4 z/4 z/4 z/4 z/4 z/4 z/ | %19
[M:5/8] [CEA]-[CEA]- [CEA]3 |] %20
V:2
 z3 z2 [A,C] | [A,CE]>[A,CE][A,CE] A,,B,,C, | [E,G,E]3 [E,G,]2 [E,G,] | %3
 [E,E]>[E,E][E,E] [E,E][E,E][E,E] |[M:5/8][K:treble] [A,EA]-[A,EA]- [A,EA]3 |[M:1/8] [A,CE] | %6
[M:3/4] [A,E]>[K:bass][A,E] [A,E][A,,A,] [B,,G,][C,A,] | [C,A,]3 [D,A,]2 [A,,A,] | %8
 [E,G,E]>[E,A,E] [E,G,E][B,,B,] [B,,B,][B,,A,] | E,2- [E,-A,] [E,B,]3 |[M:1/8] [A,,A,] | %11
[M:3/4] [A,,A,]>[A,,A,] [A,,A,][D,A,] [D,A,][D,A,] | [A,,A,]3 [C,A,]/[C,A,]/- [C,A,][E,CE] | %13
 [A,E]>[A,E] [A,E][F,A,^D] [F,A,D][B,,A,] |[M:5/8] [E,G,E]2 [F,A,] [G,B,]2 |[M:1/8] [E,G,] | %16
[M:3/4] [A,E]>[A,E] [A,E][A,,A,] [B,,G,][C,A,] |[M:7/8] [D,A,][D,D][D,A,] [D,D]3 [D,A,] | %18
[M:29/32] z/4 z/4 z/4 z/4 z/4 z/4 z/4 z/4 z/ [D,A,]/-<[D,A,]/[E,A,]/ z/4 z/4 z/4 z/4 z/4 z/4 z/4 z/4 z/4 z/4 z/4 z/ | %19
[M:5/8] A,,-A,,- A,,3 |] %20
V:3
 x6 | x6 | x6 | x6 |[M:5/8] x5 |[M:1/8] x |[M:3/4] x6 | x6 | x6 | z2 C D3 |[M:1/8] x |[M:3/4] x6 | %12
 x6 | x6 |[M:5/8] z2 ^D E2 |[M:1/8] x |[M:3/4] x6 |[M:7/8] x7 | %18
[M:29/32] (7:8:19[CE]3/4-[CE]/8-[CE]/32[Ee]-[Ee]/4-[Ee]3/32-[Ee]/64 z3/8 z/16 z/64 z3/4 z/8 z/32 [EAc]3/2-[EAc]/4-[EAc]/16[DEB]3/4- [DEB]/8-[DEB]/32 | %19
[M:5/8] x5 |] %20
V:4
 x6 | x6 | x6 | x6 |[M:5/8][K:treble] x5 |[M:1/8] x |[M:3/4] x3/2[K:bass] x9/2 | x6 | x6 | %9
 G,2 z2 z2 |[M:1/8] x |[M:3/4] x6 | x6 | x6 |[M:5/8] x5 |[M:1/8] x |[M:3/4] x6 |[M:7/8] x7 | %18
[M:29/32] (7:8:19[A,,A,]3/4-[A,,A,]/8-[A,,A,]/32[C,A,]-[C,A,]/4-[C,A,]3/32-[C,A,]/64 z3/8 z/16 z/64 z3/4 z/8 z/32 E,3/2-E,/4-E,/16E,3/4- E,/8-E,/32 | %19
[M:5/8] x5 |] %20

